packages/admin/admin-icons/icons/move.svg

<svg xmlns="http://www.w3.org/2000/svg" width="16" height="16" viewBox="0 0 16 16"><path fill="#242424" fill-rule="evenodd" d="M6,6.79 C6.24545989,6.79 6.44960837,6.96687516 6.49194433,7.20012437 L6.5,7.29 L6.5,13.083 L7.64644661,11.9364466 C7.82001296,11.7628803 8.08943736,11.7435951 8.2843055,11.8785912 L8.35355339,11.9364466 C8.52711974,12.110013 8.54640489,12.3794374 8.41140884,12.5743055 L8.35355339,12.6435534 L6,14.9971068 L3.64644661,12.6435534 C3.45118446,12.4482912 3.45118446,12.1317088 3.64644661,11.9364466 C3.82001296,11.7628803 4.08943736,11.7435951 4.2843055,11.8785912 L4.35355339,11.9364466 L5.5,13.083 L5.5,7.29 C5.5,7.01385763 5.72385763,6.79 6,6.79 Z M10,1 L12.3535534,3.35355339 C12.5488155,3.54881554 12.5488155,3.86539803 12.3535534,4.06066017 C12.179987,4.23422652 11.9105626,4.25351167 11.7156945,4.11851562 L11.6464466,4.06066017 L10.5,2.91410678 L10.5,8.70710678 C10.5,8.98324916 10.2761424,9.20710678 10,9.20710678 C9.75454011,9.20710678 9.55039163,9.03023162 9.50805567,8.79698241 L9.5,8.70710678 L9.5,2.91410678 L8.35355339,4.06066017 C8.17998704,4.23422652 7.91056264,4.25351167 7.7156945,4.11851562 L7.64644661,4.06066017 C7.47288026,3.88709382 7.45359511,3.61766942 7.58859116,3.42280128 L7.64644661,3.35355339 L10,1 Z"/></svg>

<svg width="16" height="16" fill="none" viewBox="0 0 16 16">
  <path fill="#242424" fill-rule="evenodd" d="M6 6.792a.5.5 0 0 1 .492.41l.008.09v5.793l1.146-1.146a.5.5 0 0 1 .638-.058l.07.058a.5.5 0 0 1 .057.638l-.057.069L6 14.999l-2.354-2.353a.5.5 0 0 1 .638-.765l.07.058L5.5 13.085V7.292a.5.5 0 0 1 .5-.5Zm4-5.79 2.354 2.354a.5.5 0 0 1-.638.765l-.07-.058L10.5 2.917V8.71a.5.5 0 0 1-.992.09L9.5 8.71V2.917L8.354 4.063a.5.5 0 0 1-.638.058l-.07-.058a.5.5 0 0 1-.057-.638l.057-.069L10 1.002Z" clip-rule="evenodd"/>
</svg>
